src/DGGeoclicker/skin/basic/img/DGPreloader__preloaderBig.svg

<svg xmlns="http://www.w3.org/2000/svg" width="44" height="44"><path fill="#0DA5D5" d="M35.68 10.32c2.688 3.145 4.32 7.219 4.32 11.68 0 9.941-8.059 18-18 18s-18-8.059-18-18c0-4.461 1.632-8.535 4.32-11.68l-2.84-2.84c-3.41 3.874-5.48 8.954-5.48 14.52 0 12.15 9.85 22 22 22s22-9.85 22-22c0-5.566-2.07-10.646-5.48-14.52l-2.84 2.84z"/><path fill="#A6CD2A" d="M9.271 9.272c3.258-3.257 7.758-5.272 12.729-5.272s9.471 2.015 12.729 5.272l2.828-2.828c-3.982-3.982-9.482-6.444-15.557-6.444s-11.575 2.462-15.557 6.444l2.828 2.828z"/></svg>

<svg xmlns="http://www.w3.org/2000/svg" width="44" height="44">
    <path d="M 35.68,10.32 C 38.368,13.465 40,17.539 40,22 40,31.941 31.941,40 22,40 12.059,40 4,31.941 4,22 4,17.539 5.632,13.465 8.32,10.32 L 5.48,7.48 C 2.07,11.354 0,16.434 0,22 0,34.15 9.85,44 22,44 34.15,44 44,34.15 44,22 44,16.434 41.93,11.354 38.52,7.48 l -2.84,2.84 z" fill="#0da5d5"/>
    <path d="M 9.271,9.272 C 12.529,6.015 17.029,4 22,4 26.971,4 31.471,6.015 34.729,9.272 L 37.557,6.444 C 33.575,2.462 28.075,0 22,0 15.925,0 10.425,2.462 6.443,6.444 l 2.828,2.828 z" fill="#a6cd2a"/>
</svg>
